actions/24/draw-watercolor.svg

<?xml version="1.0" encoding="UTF-8" standalone="no"?>
<svg
   width="24"
   height="24"
   viewBox="0 0 24 24"
   version="1.1"
   id="svg7"
   sodipodi:docname="draw-watercolor.svg"
   inkscape:version="1.1.2 (0a00cf5339, 2022-02-04)"
   xmlns:inkscape="http://www.inkscape.org/namespaces/inkscape"
   xmlns:sodipodi="http://sodipodi.sourceforge.net/DTD/sodipodi-0.dtd"
   xmlns="http://www.w3.org/2000/svg"
   xmlns:svg="http://www.w3.org/2000/svg">
  <sodipodi:namedview
     id="namedview9"
     pagecolor="#000000"
     bordercolor="#666666"
     borderopacity="1.0"
     inkscape:pageshadow="2"
     inkscape:pageopacity="0"
     inkscape:pagecheckerboard="0"
     showgrid="false"
     inkscape:zoom="40.187235"
     inkscape:cx="12.0063"
     inkscape:cy="11.968975"
     inkscape:window-width="1886"
     inkscape:window-height="967"
     inkscape:window-x="0"
     inkscape:window-y="29"
     inkscape:window-maximized="1"
     inkscape:current-layer="svg7" />
  <defs
     id="defs3">
    <style
       id="current-color-scheme"
       type="text/css">
   .ColorScheme-Text { color:#eeeeec; } .ColorScheme-Highlight { color:#367bf0; } .ColorScheme-NeutralText { color:#ffcc44; } .ColorScheme-PositiveText { color:#3db47e; } .ColorScheme-NegativeText { color:#dd4747; }
  </style>
  </defs>
  <path
     style="fill:currentColor"
     class="ColorScheme-Text"
     d="M 14.574,1.0059 C 13.51835,0.87527108 10.76911,2.7589871 8.0605,5.4688 6.8521306,6.6778986 5.7641723,7.9413567 4.9609,9.0684 5.9024,9.3683 6.6357,10.101 6.9355,11.043 8.0618201,10.239774 9.3245128,9.1518397 10.533,7.9434 13.606105,4.8692691 15.544952,1.8228352 14.865,1.1367 14.794768,1.065563 14.697412,1.021803 14.574,1.0059 Z m -1.32819,8.6400731 c 0,0 -0.418588,-0.1576205 -0.529583,0.076001 C 12.254804,10.69318 11.55756,11.541442 11.219,12.25 11.072,12.511 11,12.808 11,13.125 11,14.164 11.892,15 13,15 c 1.108,0 2,-0.836 2,-1.875 0,-0.317 -0.103,-0.614 -0.25,-0.875 -0.347362,-0.72698 -1.051097,-1.601023 -1.50419,-2.6040269 -0.09475,-0.2097403 0.06728,0.2208532 0,0 z M 4.5,10.33 v 0.002 c -3.1066479,0.832605 -1.3876259,2.672151 -2.7978881,4.133877 -0.1785167,0.185031 0.1998195,0.493301 0.1998195,0.493301 0.3148,0 -0.2864875,0.02665 0,0 C 4.8005684,14.689556 6.25,13.142944 6.25,12.08 6.25,11.498 6.3094,10.427 4.5,10.33 Z"
     transform="translate(4,4)"
     id="path5"
     sodipodi:nodetypes="ccccccccscssscscccscssc" />
</svg>

<svg xmlns="http://www.w3.org/2000/svg" width="24" height="24" viewBox="0 0 24 24">
 <defs>
  <style id="current-color-scheme" type="text/css">
   .ColorScheme-Text { color:#eeeeec; } .ColorScheme-Highlight { color:#367bf0; } .ColorScheme-NeutralText { color:#ffcc44; } .ColorScheme-PositiveText { color:#3db47e; } .ColorScheme-NegativeText { color:#dd4747; }
  </style>
 </defs>
 <path style="fill:currentColor" class="ColorScheme-Text" d="m14.574 1.0059a1.7502 7.8757 44.989 0 0 -6.5135 4.4629 1.7502 7.8757 44.989 0 0 -3.0996 3.5996c0.9415 0.2999 1.6748 1.0326 1.9746 1.9746a1.7502 7.8757 44.989 0 0 3.5975 -3.0996 1.7502 7.8757 44.989 0 0 4.332 -6.8067 1.7502 7.8757 44.989 0 0 -0.291 -0.1308zm-1.574 7.9941c-0.389 1.277-1.361 2.371-1.781 3.25-0.147 0.261-0.219 0.558-0.219 0.875 0 1.039 0.892 1.875 2 1.875s2-0.836 2-1.875c0-0.317-0.103-0.614-0.25-0.875-0.42-0.879-1.361-1.973-1.75-3.25zm-8.5 1.33v0.002c-3.4999 0.938-0.8751 3.154-3.5 4.668 3.4999 0 5.25-1.752 5.25-2.92 0-0.582 0.0594-1.653-1.75-1.75z" transform="translate(4 4)"/>
</svg>
